justvector/picassa.svg

<?xml version="1.0" encoding="iso-8859-1"?>
<!-- Generator: Adobe Illustrator 15.0.0, SVG Export Plug-In . SVG Version: 6.00 Build 0)  -->
<!DOCTYPE svg PUBLIC "-//W3C//DTD SVG 1.1//EN" "http://www.w3.org/Graphics/SVG/1.1/DTD/svg11.dtd">
<svg version="1.1" id="Icons" xmlns="http://www.w3.org/2000/svg" xmlns:xlink="http://www.w3.org/1999/xlink" x="0px" y="0px"
	 width="100px" height="100px" viewBox="0 0 100 100" style="enable-background:new 0 0 100 100;" xml:space="preserve">
<path id="Picassa" d="M31.564,69.689c0.966,0,57.23,0,58.859,0C83.527,83.946,69.649,93.549,54.103,95h-8.249
	c-4.931-0.46-9.715-1.736-14.289-3.791C31.564,90.563,31.564,70.625,31.564,69.689z M68.553,9.043C62.683,6.371,56.44,5,49.998,5
	c-5.362,0-10.64,1.035-15.713,2.941c1.189,1.081,32.735,29.77,34.268,31.168C68.553,37.043,68.553,9.678,68.553,9.043z
	 M29.497,10.002C14.386,17.771,5,33.092,5,50.094c0,3.872,0.583,7.809,1.637,11.712c1.222-1.112,39.108-35.602,39.889-36.316
	C45.764,24.798,30.007,10.467,29.497,10.002z M26.837,88.606c0-1.761,0-36.695,0-38.772C25.335,51.205,8.761,66.298,8.244,66.768
	C11.852,75.83,18.435,83.52,26.837,88.606z M73.3,11.627c0,1.793,0,52.352,0,53.311c0.924,0,18.434,0,19.15,0
	c1.674-4.8,2.55-9.795,2.55-14.844C95,34.423,86.685,19.793,73.3,11.627z"/>
</svg>

<?xml version="1.0" encoding="UTF-8" standalone="no"?>
<!DOCTYPE svg PUBLIC "-//W3C//DTD SVG 1.1//EN" "http://www.w3.org/Graphics/SVG/1.1/DTD/svg11.dtd">
<svg width="100%" height="100%" viewBox="0 0 100 100" version="1.1" xmlns="http://www.w3.org/2000/svg" xmlns:xlink="http://www.w3.org/1999/xlink" xml:space="preserve" xmlns:serif="http://www.serif.com/" style="fill-rule:evenodd;clip-rule:evenodd;stroke-linejoin:round;stroke-miterlimit:2;">
    <path id="Picassa" d="M31.564,69.689L90.423,69.689C83.527,83.946 69.649,93.549 54.103,95L45.854,95C40.923,94.54 36.139,93.264 31.565,91.209C31.564,90.563 31.564,70.625 31.564,69.689ZM68.553,9.043C62.683,6.371 56.44,5 49.998,5C44.636,5 39.358,6.035 34.285,7.941C35.474,9.022 67.02,37.711 68.553,39.109L68.553,9.043ZM29.497,10.002C14.386,17.771 5,33.092 5,50.094C5,53.966 5.583,57.903 6.637,61.806C7.859,60.694 45.745,26.204 46.526,25.49C45.764,24.798 30.007,10.467 29.497,10.002ZM26.837,88.606L26.837,49.834C25.335,51.205 8.761,66.298 8.244,66.768C11.852,75.83 18.435,83.52 26.837,88.606ZM73.3,11.627C73.3,13.42 91.734,64.938 92.45,64.938C94.124,60.138 95,55.143 95,50.094C95,34.423 86.685,19.793 73.3,11.627Z" style="fill-rule:nonzero;"/>
</svg>
